icons/hexagon-divide-outline.svg

<svg xmlns="http://www.w3.org/2000/svg" width="24" height="24" viewBox="0 0 24 24">
  <path d="M16.3174576,1 C17.4115312,1 18.4188507,1.59559898 18.9461053,2.55424375 L18.9461053,2.55424375 L23.3461053,10.5542438 C23.8412416,11.4544917 23.8412416,12.5455083 23.3461053,13.4457562 L23.3461053,13.4457562 L18.9461053,21.4457562 C18.4188507,22.404401 17.4115312,23 16.3174576,23 L16.3174576,23 L7.68254244,23 C6.58846875,23 5.58114934,22.404401 5.05389472,21.4457562 L5.05389472,21.4457562 L0.653894716,13.4457562 C0.158758351,12.5455083 0.158758351,11.4544917 0.653894716,10.5542438 L0.653894716,10.5542438 L5.05389472,2.55424375 C5.58114934,1.59559898 6.58846875,1 7.68254244,1 L7.68254244,1 Z M16.3174576,3 L7.68254244,3 C7.31785121,3 6.98207807,3.19853299 6.80632653,3.51808125 L6.80632653,3.51808125 L2.40632653,11.5180813 C2.24128108,11.8181639 2.24128108,12.1818361 2.40632653,12.4819187 L2.40632653,12.4819187 L6.80632653,20.4819187 C6.98207807,20.801467 7.31785121,21 7.68254244,21 L7.68254244,21 L16.3174576,21 C16.6821488,21 17.0179219,20.801467 17.1936735,20.4819187 L17.1936735,20.4819187 L21.5936735,12.4819187 C21.7587189,12.1818361 21.7587189,11.8181639 21.5936735,11.5180813 L21.5936735,11.5180813 L17.1936735,3.51808125 C17.0179219,3.19853299 16.6821488,3 16.3174576,3 L16.3174576,3 Z M12,15 C12.8284271,15 13.5,15.6715729 13.5,16.5 C13.5,17.3284271 12.8284271,18 12,18 C11.1715729,18 10.5,17.3284271 10.5,16.5 C10.5,15.6715729 11.1715729,15 12,15 Z M17,11 C17.5522847,11 18,11.4477153 18,12 C18,12.5128358 17.6139598,12.9355072 17.1166211,12.9932723 L17,13 L7,13 C6.44771525,13 6,12.5522847 6,12 C6,11.4871642 6.38604019,11.0644928 6.88337887,11.0067277 L7,11 L17,11 Z M12,6 C12.8284271,6 13.5,6.67157288 13.5,7.5 C13.5,8.32842712 12.8284271,9 12,9 C11.1715729,9 10.5,8.32842712 10.5,7.5 C10.5,6.67157288 11.1715729,6 12,6 Z"/>
</svg>

<svg xmlns="http://www.w3.org/2000/svg" viewBox="0 0 24 24">
  <path d="M16.32 1a3 3 0 0 1 2.63 1.55l4.4 8c.5.9.5 2 0 2.9l-4.4 8A3 3 0 0 1 16.32 23H7.68a3 3 0 0 1-2.63-1.55l-4.4-8a3 3 0 0 1 0-2.9l4.4-8A3 3 0 0 1 7.68 1zm0 2H7.68a1 1 0 0 0-.87.52l-4.4 8a1 1 0 0 0 0 .96l4.4 8a1 1 0 0 0 .87.52h8.64a1 1 0 0 0 .87-.52l4.4-8a1 1 0 0 0 0-.96l-4.4-8a1 1 0 0 0-.87-.52zM12 15a1.5 1.5 0 1 1 0 3 1.5 1.5 0 0 1 0-3zm5-4a1 1 0 0 1 .12 2H7a1 1 0 0 1-.12-2H17zm-5-5a1.5 1.5 0 1 1 0 3 1.5 1.5 0 0 1 0-3z"/>
</svg>
